!!!OTL: 275. Das stille Thal.
!!!COM: Volksmelodie
!!!ARE: Europa, Mitteleuropa, Deutschland, Oberrhein
!!!SCT: B0275
!!!TXL: @@DE
!!!YEM: Copyright 1995, estate of Helmut Schaffrath.
**kern	**text
*ICvox	*
*Ivox	*
*M4/4	*
*met(c)	*
*clefG2	*
*k[b-e-a-]	*
*E-:	*
!LO:TX:a:t=Etwas langſam.	!
{8e-L	Jm
8gJ	.
=1	=1
4.b-	ſchön-
8cc	-ſten
4b-	Wie-
4a-	-ſen-
=2	=2
(4.g	-grun-
8f)	.
4e-}	-de
{4b-	iſt
=3	=3
4cc	mei-
4b-	-ner
4a-	Hei-
4g	-math
=4	=4
2f	Haus;
4r}	.
{4b-	da
=5	=5
4b-	ʒog
4b-	ich
4b-	man-
4ee-	-che
=6	=6
2ee-	Stun-
4cc}	-de
{4ff	ins
=7	=7
2ee-	Thal
2dd	hin-
=8	=8
2ee-	-aus.
4r}	.
{8.b-	Dich,
16g	mein
=9	=9
8.g	ſtil-
16f	-les
2f	Thal,
8.cc	grüß'
16a-	ich
=10	=10
8.a-	tau-
16g	-ſendmal!
2g}	.
{8e-L	Da
8gJ	.
=11	=11
4b-	ʒog
4b-	ich
4b-	man-
4ee-	-che
=12	=12
2ee-	Stun-
4cc}	-de
{4ff	ins
=13	=13
2ee-	Thal
2dd	hin-
=14	=14
2ee-	-aus.
4r}	.
==	==
!!!AGN: Stimmungs - Lied, Sehnsucht, Heimat, Heimweh, Trauer
!!!GTL: Trauerlieder (Elegien) und Stimmungslieder
!!!ONB: ESAC (Essen Associative Code) Database: BOEHME
!!!AMT: simple quadruple
!!!AIN: vox
!!!EED: Helmut Schaffrath
!!!EEV: 1.0
!!Volksmelodie
!!@@COMMENT:"Das iſt ein ſchönes, in der Schweiʒ und am Oberrhein gern geſungenes und jetʒt durch Schul-
!!liederhefte in ganʒ Deutſchland gekanntes Stimmungslied, das auch von Männerchören nach meiner
!!Bearbeitung (1878) viel gehört, deſſen Verfaſſer aber nie angegeben wird. - Den Text hat um 1850
!!der ſchwäbiſche Dichter Wilhelm Ganʒhorn" gedichtet und ʒwar auf die Volksmelodie: Drei
!!Lilien, drei Lilien". Feinſinnig iſt der im ernſten Lilienliede ſtörende Refrain, Juvihei-
!!raſſaſſaſa" hier umgewandelt in "Dich mein ſtilles Thal". Ganʒhorns Text fand ich ʒuerſt in
!!Schweiʒerliederbüchern der Volksweiſe angepaßt und ʒwar in Johannes Meier, Hundert ausgewählte
!!Volkslieder für Schule und Haus. Schaffhauſen 1853 und Schäublin, Liederbuch für Jung und Alt. Schaffhauſen 1857."
!!@@END:
!!!Text: W. Ganzhorn
!!!URL-scan: https://archive.org/details/BoehmeVtLieder1895/page/n235/mode/2up
!!!ENC: Anna Maria Matuszewska
!!!EEV: 2024/03/07
*-	*-
